Origami/48x48/apps/diablo-2.svg

<svg width="48" height="48" version="1.1" viewBox="0 0 48 48" xmlns="http://www.w3.org/2000/svg">
 <path d="m6.721999 4.7697193c0.9694763 0.6769324 2.0606 1.6945746 3.2366218 2.6128332 0.8971102 0.8392811 1.0413792 1.249981 1.0413792 2.5859535v15.39496c0 4.099851 0.47918 7.073813-0.898 10.179162-1.5199286 3.427229-5.2919062 4.893198-7.5127582 7.932526-2.1146245 2.615085 2.0191981 1.367685 3.6408912 0.547714 3.475676-1.757392 6.803392-3.441384 10.967017-3.895857 5.249334-0.103745 9.398803-0.02 14.169227-0.127 8.633623 0 12.633623-8 12.633623-18.856088 0-9.143912-4-17.143912-13.44447-17.099684-8.0768-0.0373836-20.158145-0.0431687-23.889529-0.044064-1.0663222-1.639e-4 -0.6191036 0.3007312 0.0559981 0.7695441z" style="fill-rule:evenodd;opacity:.2"/>
 <path d="M 6.721999,3.769708 C 7.6914753,4.4466404 8.782599,5.4642826 9.9586208,6.3825412 10.855731,7.2218223 11,7.6325222 11,8.9684947 V 24.363455 c 0,4.099851 0.47918,7.073813 -0.898,10.179162 -1.5199286,3.427229 -5.2919062,4.893198 -7.5127582,7.932526 -2.11462451,2.615085 2.0191981,1.367685 3.6408912,0.547714 C 9.705809,41.265465 13.033525,39.581473 17.19715,39.127 22.446484,39.023255 26.595953,39.107 31.366377,39 40,39 44,31 44,20.143912 44,11 40,3 30.55553,3.0442279 22.47873,3.0068443 10.397385,3.0010592 6.6660009,3.0001639 5.5996787,3 6.0468973,3.3008951 6.721999,3.769708 Z" style="fill-rule:evenodd;fill:#e97e10"/>
 <path d="m 19.653571,9.0004238 c 3.007777,0.00605 9.17496,0.094022 10.384428,0.7059643 C 35.320734,12.800018 36.1112,16.510394 36,21.796902 c 0.146512,4.7835 -1.543395,9.941125 -5.962001,12.387175 C 28.425375,34.999999 18.267722,35 18.267722,35 L 18,9.0052044 c 0,0 0.650981,-0.0068 1.653571,-0.00486 z" style="fill-rule:evenodd;opacity:.2"/>
 <path d="m 19.653571,8.0004238 c 3.007777,0.00605 9.17496,0.094022 10.384428,0.7059643 C 35.320734,11.800018 36.1112,15.510394 36,20.796902 c 0.146512,4.7835 -1.543395,9.941125 -5.962001,12.387175 C 28.425375,33.999999 18.267722,34 18.267722,34 L 18,8.0052044 c 0,0 0.650981,-0.0068 1.653571,-0.00486 z" style="fill-rule:evenodd;fill:#ffffff"/>
 <path d="m16.027344 22c-0.131686 0.06549 0.245393 0.992231 0.660156 1.570312 0.632274 0.881241 1.051386 1.397172 1.927734 2.195313 1.147073 1.044706 1.447515 1.21748 1.929688 1.705078 0.482174 0.4876 0.482422 1.21875 0.482422 1.21875v14.628906c0 0.975198-1.275094 1.589726-1.595703 1.707032-0.452554 0.165583-1.431641 0.486328-1.431641 0.486328v0.488281h11v-0.488281s-1.121666-0.320745-1.574219-0.486328c-0.32061-0.117306-1.425781-0.731834-1.425781-1.707032v-14.871093c0-1.049627 0.928782-1.305286 1.294922-1.462891 0.49602-0.213511 1.206178-0.244823 1.447266-0.732422 0.241086-0.487599-0.30273-0.245241-0.482422-0.244141-1.731306 0.0101-5.544922 0-5.544922 0-1.177834 1e-6 -1.700416 0.02696-2.652344-0.486328-0.672724-0.36274-1.313081-0.841321-1.927734-1.46289l-1.929688-1.951172c-0.090409-0.091428-0.147344-0.122542-0.177734-0.107422zm26.945312 0c-0.03039-0.01512-0.08732 0.01599-0.177734 0.107422l-1.929688 1.951172c-0.614653 0.621569-1.25501 1.10015-1.927734 1.46289-0.951928 0.513293-1.47451 0.486329-2.652344 0.486328 0 0-3.813616 0.0101-5.544922 0-0.179692-0.0011-0.723508-0.243458-0.482422 0.244141 0.241088 0.487599 0.951246 0.518911 1.447266 0.732422 0.36614 0.157605 1.294922 0.413264 1.294922 1.462891v14.871093c0 0.975198-1.105171 1.589726-1.425781 1.707032-0.452553 0.165583-1.574219 0.486328-1.574219 0.486328v0.488281h11v-0.488281s-0.979087-0.320745-1.431641-0.486328c-0.320609-0.117306-1.595703-0.731834-1.595703-1.707032v-14.628906s2.48e-4 -0.73115 0.482422-1.21875c0.482173-0.487598 0.782615-0.660372 1.929688-1.705078 0.876348-0.798141 1.29546-1.314072 1.927734-2.195313 0.414763-0.578081 0.791842-1.504824 0.660156-1.570312z" style="fill-rule:evenodd;opacity:.2"/>
 <path d="m16.027344 21c-0.131686 0.065488 0.245393 0.992231 0.660156 1.570312 0.632274 0.881241 1.051386 1.397172 1.927734 2.195313 1.147073 1.044706 1.447515 1.21748 1.929688 1.705078 0.482174 0.4876 0.482422 1.21875 0.482422 1.21875v14.628906c0 0.975198-1.275094 1.589726-1.595703 1.707032-0.452554 0.165583-1.431641 0.486328-1.431641 0.486328v0.488281h5.679688 5.320312v-0.488281s-1.121666-0.320745-1.574219-0.486328c-0.32061-0.117306-1.425781-0.731834-1.425781-1.707032v-12.433593-2.195313-0.242187c0-1.049627 0.928782-1.305286 1.294922-1.462891 0.49602-0.213511 1.206178-0.244823 1.447266-0.732422 0.241086-0.487599-0.30273-0.245241-0.482422-0.244141-1.731306 0.010101-5.544922 0-5.544922 0-1.177834 1e-6 -1.700416 0.026965-2.652344-0.486328-0.672724-0.36274-1.313081-0.841321-1.927734-1.46289l-1.929688-1.951172c-0.090409-0.091428-0.147344-0.122542-0.177734-0.107422zm26.945312 0c-0.03039-0.01512-0.087325 0.015994-0.177734 0.107422l-1.929688 1.951172c-0.614653 0.621569-1.25501 1.10015-1.927734 1.46289-0.951928 0.513293-1.47451 0.486329-2.652344 0.486328 0 0-3.813616 0.010101-5.544922 0-0.179692-0.0011-0.723508-0.243458-0.482422 0.244141 0.241088 0.487599 0.951246 0.518911 1.447266 0.732422 0.36614 0.157605 1.294922 0.413264 1.294922 1.462891v0.242187 2.195313 12.433593c0 0.975198-1.105171 1.589726-1.425781 1.707032-0.452553 0.165583-1.574219 0.486328-1.574219 0.486328v0.488281h5.320312 5.679688v-0.488281s-0.979087-0.320745-1.431641-0.486328c-0.320609-0.117306-1.595703-0.731834-1.595703-1.707032v-14.628906s2.48e-4 -0.73115 0.482422-1.21875c0.482173-0.487598 0.782615-0.660372 1.929688-1.705078 0.876348-0.798141 1.29546-1.314072 1.927734-2.195313 0.414763-0.578081 0.791842-1.504824 0.660156-1.570312z" style="fill-rule:evenodd;fill:#c2352a"/>
 <path d="m6.6660156 3c-1.0663222-1.639e-4 -0.618461 0.3007183 0.0566406 0.7695312 0.0992102 0.0692731 0.2049221 0.1545314 0.3066407 0.2304688 3.9219241 0.0010342 15.571416 0.0081068 23.525391 0.0449219 9.285035-0.0434813 13.300419 7.6909761 13.433593 16.640625 0.00229-0.181876 0.011719-0.357482 0.011719-0.541016 0-9.143912-4.000843-17.143837-13.445312-17.099609-8.076801-0.0373836-20.157288-0.0440266-23.888672-0.0449219zm4.3964844 26.914062c-0.057624 1.609976-0.284825 3.104367-0.960938 4.628907-1.5199281 3.427229-5.2908662 4.892312-7.5117182 7.93164-0.7076975 0.875186-0.70736 1.311653-0.34375 1.482422 0.0890323-0.144275 0.1988849-0.303272 0.34375-0.482422 2.220852-3.039328 5.9917901-4.504411 7.5117182-7.93164 0.810306-1.827126 0.960213-3.636653 0.960938-5.628907z" style="fill-rule:evenodd;fill:#ffffff;opacity:.2"/>
</svg>

<svg xmlns="http://www.w3.org/2000/svg" width="48" height="48" version="1.1" viewBox="0 0 48 48">
 <path style="opacity:0.2;fill-rule:evenodd" d="M 6.721999,4.7697193 C 7.6914753,5.4466517 8.782599,6.4642939 9.9586208,7.3825525 10.855731,8.2218336 11,8.6325335 11,9.968506 v 15.39496 c 0,4.099851 0.47918,7.073813 -0.898,10.179162 -1.5199286,3.427229 -5.2919062,4.893198 -7.5127582,7.932526 -2.11462451,2.615085 2.0191981,1.367685 3.6408912,0.547714 3.475676,-1.757392 6.803392,-3.441384 10.967017,-3.895857 5.249334,-0.103745 9.398803,-0.02 14.169227,-0.127 C 40,40.000011 44,32.000011 44,21.143923 44,12.000011 40,4.0000113 30.55553,4.0442392 22.47873,4.0068556 10.397385,4.0010705 6.6660009,4.0001752 5.5996787,4.0000113 6.0468973,4.3009064 6.721999,4.7697193 Z"/>
 <path style="fill:#e97e10;fill-rule:evenodd" d="M 6.721999,3.769708 C 7.6914753,4.4466404 8.782599,5.4642826 9.9586208,6.3825412 10.855731,7.2218223 11,7.6325222 11,8.9684947 V 24.363455 c 0,4.099851 0.47918,7.073813 -0.898,10.179162 -1.5199286,3.427229 -5.2919062,4.893198 -7.5127582,7.932526 -2.11462451,2.615085 2.0191981,1.367685 3.6408912,0.547714 C 9.705809,41.265465 13.033525,39.581473 17.19715,39.127 22.446484,39.023255 26.595953,39.107 31.366377,39 40,39 44,31 44,20.143912 44,11 40,3 30.55553,3.0442279 22.47873,3.0068443 10.397385,3.0010592 6.6660009,3.0001639 5.5996787,3 6.0468973,3.3008951 6.721999,3.769708 Z"/>
 <path style="opacity:0.2;fill-rule:evenodd" d="m 19.653571,9.0004238 c 3.007777,0.00605 9.17496,0.094022 10.384428,0.7059643 C 35.320734,12.800018 36.1112,16.510394 36,21.796902 c 0.146512,4.7835 -1.543395,9.941125 -5.962001,12.387175 C 28.425375,34.999999 18.267722,35 18.267722,35 L 18,9.0052044 c 0,0 0.650981,-0.0068 1.653571,-0.00486 z"/>
 <path style="fill:#ffffff;fill-rule:evenodd" d="m 19.653571,8.0004238 c 3.007777,0.00605 9.17496,0.094022 10.384428,0.7059643 C 35.320734,11.800018 36.1112,15.510394 36,20.796902 c 0.146512,4.7835 -1.543395,9.941125 -5.962001,12.387175 C 28.425375,33.999999 18.267722,34 18.267722,34 L 18,8.0052044 c 0,0 0.650981,-0.0068 1.653571,-0.00486 z"/>
 <path style="opacity:0.2;fill-rule:evenodd" d="m 16.027344,22 c -0.131686,0.06549 0.245393,0.992231 0.660156,1.570312 0.632274,0.881241 1.051386,1.397172 1.927734,2.195313 1.147073,1.044706 1.447515,1.21748 1.929688,1.705078 0.482174,0.4876 0.482422,1.21875 0.482422,1.21875 v 14.628906 c 0,0.975198 -1.275094,1.589726 -1.595703,1.707032 C 18.979087,45.190974 18,45.511719 18,45.511719 V 46 H 23.679688 29 v -0.488281 c 0,0 -1.121666,-0.320745 -1.574219,-0.486328 C 27.105171,44.908085 26,44.293557 26,43.318359 V 30.884766 28.689453 28.447266 c 0,-1.049627 0.928782,-1.305286 1.294922,-1.462891 0.49602,-0.213511 1.206178,-0.244823 1.447266,-0.732422 0.241086,-0.487599 -0.30273,-0.245241 -0.482422,-0.244141 -1.731306,0.0101 -5.544922,0 -5.544922,0 -1.177834,10e-7 -1.700416,0.02696 -2.652344,-0.486328 -0.672724,-0.36274 -1.313081,-0.841321 -1.927734,-1.46289 L 16.205078,22.107422 C 16.114669,22.015994 16.057734,21.98488 16.027344,22 Z m 26.945312,0 c -0.03039,-0.01512 -0.08732,0.01599 -0.177734,0.107422 l -1.929688,1.951172 c -0.614653,0.621569 -1.25501,1.10015 -1.927734,1.46289 -0.951928,0.513293 -1.47451,0.486329 -2.652344,0.486328 0,0 -3.813616,0.0101 -5.544922,0 -0.179692,-0.0011 -0.723508,-0.243458 -0.482422,0.244141 0.241088,0.487599 0.951246,0.518911 1.447266,0.732422 C 32.071218,27.14198 33,27.397639 33,28.447266 v 0.242187 2.195313 12.433593 c 0,0.975198 -1.105171,1.589726 -1.425781,1.707032 C 31.121666,45.190974 30,45.511719 30,45.511719 V 46 H 35.320312 41 v -0.488281 c 0,0 -0.979087,-0.320745 -1.431641,-0.486328 -0.320609,-0.117306 -1.595703,-0.731834 -1.595703,-1.707032 V 28.689453 c 0,0 2.48e-4,-0.73115 0.482422,-1.21875 0.482173,-0.487598 0.782615,-0.660372 1.929688,-1.705078 0.876348,-0.798141 1.29546,-1.314072 1.927734,-2.195313 C 42.727263,22.992231 43.104342,22.065488 42.972656,22 Z"/>
 <path style="fill:#c2352a;fill-rule:evenodd" d="M 16.027344 21 C 15.895658 21.065488 16.272737 21.992231 16.6875 22.570312 C 17.319774 23.451553 17.738886 23.967484 18.615234 24.765625 C 19.762307 25.810331 20.062749 25.983105 20.544922 26.470703 C 21.027096 26.958303 21.027344 27.689453 21.027344 27.689453 L 21.027344 42.318359 C 21.027344 43.293557 19.75225 43.908085 19.431641 44.025391 C 18.979087 44.190974 18 44.511719 18 44.511719 L 18 45 L 23.679688 45 L 29 45 L 29 44.511719 C 29 44.511719 27.878334 44.190974 27.425781 44.025391 C 27.105171 43.908085 26 43.293557 26 42.318359 L 26 29.884766 L 26 27.689453 L 26 27.447266 C 26 26.397639 26.928782 26.14198 27.294922 25.984375 C 27.790942 25.770864 28.5011 25.739552 28.742188 25.251953 C 28.983274 24.764354 28.439458 25.006712 28.259766 25.007812 C 26.52846 25.017913 22.714844 25.007812 22.714844 25.007812 C 21.53701 25.007813 21.014428 25.034777 20.0625 24.521484 C 19.389776 24.158744 18.749419 23.680163 18.134766 23.058594 L 16.205078 21.107422 C 16.114669 21.015994 16.057734 20.98488 16.027344 21 z M 42.972656 21 C 42.942266 20.98488 42.885331 21.015994 42.794922 21.107422 L 40.865234 23.058594 C 40.250581 23.680163 39.610224 24.158744 38.9375 24.521484 C 37.985572 25.034777 37.46299 25.007813 36.285156 25.007812 C 36.285156 25.007812 32.47154 25.017913 30.740234 25.007812 C 30.560542 25.006712 30.016726 24.764354 30.257812 25.251953 C 30.4989 25.739552 31.209058 25.770864 31.705078 25.984375 C 32.071218 26.14198 33 26.397639 33 27.447266 L 33 27.689453 L 33 29.884766 L 33 42.318359 C 33 43.293557 31.894829 43.908085 31.574219 44.025391 C 31.121666 44.190974 30 44.511719 30 44.511719 L 30 45 L 35.320312 45 L 41 45 L 41 44.511719 C 41 44.511719 40.020913 44.190974 39.568359 44.025391 C 39.24775 43.908085 37.972656 43.293557 37.972656 42.318359 L 37.972656 27.689453 C 37.972656 27.689453 37.972904 26.958303 38.455078 26.470703 C 38.937251 25.983105 39.237693 25.810331 40.384766 24.765625 C 41.261114 23.967484 41.680226 23.451553 42.3125 22.570312 C 42.727263 21.992231 43.104342 21.065488 42.972656 21 z"/>
 <path style="fill:#ffffff;fill-rule:evenodd;opacity:0.2" d="M 6.6660156 3 C 5.5996934 2.9998361 6.0475546 3.3007183 6.7226562 3.7695312 C 6.8218664 3.8388043 6.9275783 3.9240626 7.0292969 4 C 10.951221 4.0010342 22.600713 4.0081068 30.554688 4.0449219 C 39.839723 4.0014406 43.855107 11.735898 43.988281 20.685547 C 43.990571 20.503671 44 20.328065 44 20.144531 C 44 11.000619 39.999157 3.000694 30.554688 3.0449219 C 22.477887 3.0075383 10.3974 3.0008953 6.6660156 3 z M 11.0625 29.914062 C 11.004876 31.524038 10.777675 33.018429 10.101562 34.542969 C 8.5816339 37.970198 4.8106958 39.435281 2.5898438 42.474609 C 1.8821463 43.349795 1.8824838 43.786262 2.2460938 43.957031 C 2.3351261 43.812756 2.4449787 43.653759 2.5898438 43.474609 C 4.8106958 40.435281 8.5816339 38.970198 10.101562 35.542969 C 10.911868 33.715843 11.061775 31.906316 11.0625 29.914062 z"/>
</svg>
